X: 10523
T: Doon, The
R: reel
M: 4/4
K: Dmajor
DEFA B2AF|DFAF E2FE|DEFA BAFA|dfec dBAF|
D3A B2AF|DFAF E2FE|DEFA BAFA|Bdec (d2 d2)|
D3A B2AF|DFAF EDB,C|D2 DA BAFA|dfec dBAF|
DEFA B2AF|DFAF E2FE|DEFA BAFA|Bdec d2 (3ABc||
d2 fd Adfd|d2fd B2AB|d2fd Adfg|afed B2AB|
d2 fd Adfd|defd edef|g2ge dBA2|fgfe dBAB|
d2 fd Adfd|d2fd B2AB|d2fd Adfg|afed B2AB|
d2 fd Adfd|defd edef|gfec dcBA|Bdec dBAF||

